packages/ffe-icons/icons/filled/md/folder_off.svg

<svg xmlns="http://www.w3.org/2000/svg" height="24" viewBox="0 -960 960 960" width="24"><path d="m798.537-274.463-453.46-453.844q-14.384-14.385-6.577-33.038 7.808-18.654 28.269-18.654 6.077 0 11.653 2.231 5.577 2.231 10.039 6.692l71.077 71.077h328.153q30.308 0 51.308 21t21 51.308v326.921q0 24.307-22.193 33.846-22.192 9.538-39.269-7.539Zm-626.228 94.462q-30.308 0-51.308-21t-21-51.308v-455.382q0-30.308 21-51.308t51.308-21h7.692l72.308 72.308h-84.306l-82-82.001q-8.308-8.308-8.808-20.577-.5-12.268 8.807-21.576 8.692-8.692 21.077-8.692 12.384 0 21.076 8.692l719.076 719.076q8.923 8.923 8.807 20.884-.115 11.961-9.423 21.269-9.307 8.692-21.076 9-11.769.307-21.076-9L695.078-180.002H172.309Z"/></svg>

<svg xmlns="http://www.w3.org/2000/svg" height="24" viewBox="0 -960 960 960" width="24"><path d="M798.54-274.46 345.08-728.31q-14.39-14.38-6.58-33.04Q346.31-780 366.77-780q6.08 0 11.65 2.23 5.58 2.23 10.04 6.69L459.54-700h328.15Q818-700 839-679q21 21 21 51.31v326.92q0 24.31-22.19 33.85-22.2 9.53-39.27-7.54ZM172.31-180Q142-180 121-201q-21-21-21-51.31v-455.38Q100-738 121-759q21-21 51.31-21H180l72.31 72.31H168l-82-82q-8.31-8.31-8.81-20.58-.5-12.27 8.81-21.57 8.69-8.7 21.08-8.7 12.38 0 21.08 8.7l719.07 719.07q8.92 8.92 8.81 20.88-.12 11.97-9.42 21.27-9.31 8.7-21.08 9-11.77.31-21.08-9L695.08-180H172.31Z"/></svg>
